optimized/24/outline/contact-us.svg

<svg viewBox="0 0 24 24" fill="none" xmlns="http://www.w3.org/2000/svg">
  <g clip-path="url(#clip0_2117_12176)">
    <path d="M15.7285 13.089L17.5163 14.3586L18.2244 14.8614C17.9343 14.5715 17.7037 14.4274 17.5163 14.3586L15.7285 13.089C15.741 13.0846 15.7537 13.0802 15.7665 13.0757L15.8031 13.0629C15.9251 13.0202 16.0579 12.9741 16.1932 12.9323C16.4635 12.8489 16.7777 12.7716 17.1232 12.7625C17.8717 12.7427 18.5831 13.0449 19.3119 13.7732C19.5974 14.0586 19.8687 14.3167 20.1255 14.561L20.1365 14.5714C20.3933 14.8157 20.6411 15.0515 20.8609 15.2769C21.2865 15.7134 21.6968 16.1968 21.8871 16.7718C22.0961 17.4034 22.0085 18.0342 21.6771 18.6823C21.3625 19.2976 20.8133 19.9611 20.0442 20.73C20.0292 20.745 20.0136 20.7593 19.9974 20.773C19.9974 20.773 19.9952 20.7753 19.9924 20.7781C19.9863 20.7842 19.9746 20.7959 19.9553 20.8157L19.9486 20.8226C19.9095 20.8626 19.8533 20.9202 19.7862 20.984C19.642 21.1211 19.4424 21.2922 19.1799 21.4545C18.6444 21.7854 17.8894 22.0528 16.8701 21.9911C14.8778 21.8705 11.9982 20.5036 7.74884 16.2555C3.49894 12.0067 2.13078 9.12702 2.00907 7.13441C1.94681 6.11496 2.21368 5.35972 2.54433 4.82395C2.70644 4.56127 2.87744 4.36154 3.01458 4.21719C3.07852 4.14989 3.13626 4.09351 3.1763 4.05441L3.18288 4.04798C3.20268 4.02864 3.21441 4.01692 3.22054 4.01079C3.22338 4.00796 3.22572 4.00567 3.22572 4.00567C3.23943 3.98947 3.25381 3.97385 3.26881 3.95885C4.03962 3.18798 4.70407 2.63788 5.31973 2.32294C5.96834 1.99115 6.59943 1.90361 7.23107 2.11365C7.80577 2.30475 8.28842 2.71617 8.72393 3.14196C8.94766 3.36071 9.18186 3.60721 9.4244 3.86248L9.42834 3.86663C9.67533 4.12658 9.93654 4.40151 10.2259 4.69077C10.9546 5.41925 11.2572 6.13052 11.2382 6.87909C11.2294 7.22455 11.1524 7.53893 11.0692 7.80929C11.0276 7.94467 10.9815 8.07759 10.939 8.1996L10.9261 8.23631C10.8872 8.34779 10.8512 8.45075 10.8174 8.55543C10.7123 8.88085 10.6447 9.1749 10.6588 9.48891L9.2385 8.48037C9.27335 8.34044 9.31299 8.20788 9.35345 8.08261C9.39321 7.9595 9.43529 7.83905 9.47344 7.72986L9.48641 7.69272C9.52917 7.57017 9.56651 7.46178 9.59878 7.35689C9.66345 7.1467 9.69653 6.98466 9.70022 6.83992C9.70612 6.60809 9.64345 6.28389 9.13819 5.77877C8.83482 5.47548 8.56241 5.18877 8.31789 4.93141L8.31304 4.92631C8.06417 4.66437 7.84916 4.43828 7.64841 4.242C7.23251 3.83538 6.96313 3.64583 6.74562 3.57351C6.58506 3.52011 6.38379 3.50668 6.02037 3.69259C5.62745 3.89359 5.10592 4.29941 4.37597 5.02741L9.2385 8.48037L10.6588 9.48891C10.6641 9.60847 10.6813 9.73093 10.7128 9.8591C10.8309 10.3404 11.1768 11.0034 12.0888 11.9151C13.0008 12.8268 13.6637 13.1724 14.1447 13.2902C14.6093 13.404 14.9985 13.3301 15.4475 13.1847C15.5402 13.1547 15.6314 13.123 15.7285 13.089ZM4.26547 5.14114L4.25794 5.14847L4.25468 5.15166C4.21333 5.19204 4.17361 5.23085 4.12994 5.27681C4.04238 5.36898 3.94442 5.48465 3.85353 5.63191C3.6782 5.91601 3.50302 6.35879 3.54466 7.04061C3.63078 8.45056 4.65436 10.9864 8.83654 15.1675C13.0182 19.348 15.5537 20.3701 16.963 20.4555C17.6446 20.4967 18.0871 20.3213 18.3711 20.1458C18.5183 20.0548 18.6339 19.9568 18.7261 19.8691C18.7719 19.8255 18.8106 19.7859 18.8509 19.7446L18.8545 19.741L18.8618 19.7334C18.8852 19.7094 18.9284 19.6649 18.9758 19.6227C19.7018 18.8949 20.1067 18.3744 20.3073 17.9819C20.493 17.6188 20.4801 17.4168 20.4266 17.2551C20.3544 17.0371 20.1652 16.767 19.7595 16.351C19.5636 16.1501 19.3378 15.9349 19.0762 15.6861L19.0611 15.6718C18.8067 15.4298 18.5236 15.1605 18.2244 14.8614L17.5163 14.3586C17.3775 14.3076 17.2622 14.2978 17.1637 14.3004C17.0191 14.3042 16.8571 14.3374 16.647 14.4023C16.5422 14.4346 16.4339 14.4721 16.3114 14.515L16.2743 14.528C16.1651 14.5662 16.0447 14.6084 15.9216 14.6483C15.3579 14.8309 14.6462 14.997 13.7787 14.7845C12.9276 14.576 12.0271 14.0288 11.0011 13.0031C9.97504 11.9773 9.42759 11.0769 9.21868 10.2259C9.05302 9.55104 9.11642 8.97046 9.2385 8.48037L4.37597 5.02741C4.3338 5.0747 4.28941 5.11786 4.26547 5.14114Z" fill="#333333"/>
    <path d="M14.5786 3.10107C14.661 2.68431 15.0657 2.41327 15.4825 2.49568L20.8302 3.5532C21.0478 3.59623 21.2363 3.7311 21.3472 3.9232C21.4581 4.1153 21.4807 4.34592 21.4091 4.55589L19.6511 9.71594C19.5141 10.1181 19.077 10.333 18.6749 10.196C18.2727 10.059 18.0578 9.62192 18.1948 9.21979L19.2926 5.99761L13.9598 9.07652C13.5919 9.28894 13.1214 9.16288 12.909 8.79497C12.6966 8.42705 12.8227 7.9566 13.1906 7.74419L18.5234 4.66527L15.184 4.00491C14.7673 3.92249 14.4962 3.51783 14.5786 3.10107Z" fill="#333333"/>
  </g>
  <defs>
    <clipPath id="clip0_2117_12176">
      <rect width="24" height="24" fill="white"/>
    </clipPath>
  </defs>
</svg>

<svg xmlns="http://www.w3.org/2000/svg" width="24" height="24" fill="none">
  <g fill="#333" clip-path="url(#a)">
    <path d="m15.729 13.089 1.787 1.27.708.502c-.29-.29-.52-.434-.708-.502l-1.787-1.27.038-.013.036-.013c.122-.043.255-.089.39-.13.27-.084.585-.161.93-.17.749-.02 1.46.282 2.189 1.01.285.286.557.544.813.788l.012.01c.256.245.504.48.724.706.425.436.836.92 1.026 1.495.21.631.122 1.262-.21 1.91-.314.616-.864 1.28-1.633 2.048a.761.761 0 0 1-.047.043l-.005.005a3.811 3.811 0 0 0-.037.038l-.006.007c-.04.04-.096.097-.163.161a3.699 3.699 0 0 1-.606.47c-.536.331-1.29.599-2.31.537-1.992-.12-4.872-1.487-9.121-5.735-4.25-4.25-5.618-7.129-5.74-9.122-.062-1.019.205-1.774.535-2.31.162-.263.333-.462.47-.607.065-.067.122-.123.162-.163l.007-.006.038-.037.005-.005a.766.766 0 0 1 .043-.047c.77-.771 1.435-1.321 2.05-1.636.65-.332 1.28-.42 1.912-.21.575.192 1.057.603 1.493 1.029.224.219.458.465.7.72l.004.005c.247.26.509.535.798.824.729.728 1.031 1.44 1.012 2.188-.009.346-.086.66-.169.93-.041.136-.088.269-.13.39l-.013.037c-.039.112-.075.215-.109.32-.105.325-.172.619-.158.933L9.239 8.48a6.04 6.04 0 0 1 .114-.397c.04-.123.082-.244.12-.353l.013-.037c.043-.123.08-.231.113-.336.064-.21.098-.372.101-.517.006-.232-.057-.556-.562-1.061-.303-.304-.576-.59-.82-.848l-.005-.005a26.91 26.91 0 0 0-.665-.684c-.415-.407-.685-.596-.902-.668-.16-.054-.362-.067-.726.119-.393.2-.914.606-1.644 1.334L9.238 8.48l1.42 1.009c.006.12.023.242.055.37.118.481.464 1.144 1.376 2.056.912.912 1.575 1.257 2.056 1.375.464.114.854.04 1.303-.105.092-.03.183-.062.28-.096ZM4.264 5.141l-.007.007-.003.004a4.53 4.53 0 0 0-.125.125 2.156 2.156 0 0 0-.276.355c-.176.284-.351.727-.31 1.409.087 1.41 1.11 3.945 5.293 8.127 4.181 4.18 6.717 5.202 8.126 5.288.682.04 1.124-.135 1.408-.31.147-.091.263-.19.355-.277a4.59 4.59 0 0 0 .125-.124l.004-.004.007-.008c.023-.024.066-.068.114-.11.726-.728 1.13-1.249 1.331-1.641.186-.363.173-.565.12-.727-.073-.218-.262-.488-.668-.904-.195-.2-.421-.416-.683-.665l-.015-.014c-.254-.242-.537-.511-.837-.81l-.708-.503a.918.918 0 0 0-.352-.059 1.942 1.942 0 0 0-.517.102c-.105.033-.213.07-.336.113l-.037.013c-.109.038-.23.08-.352.12-.564.183-1.276.349-2.143.136-.851-.208-1.752-.755-2.778-1.78-1.026-1.027-1.573-1.927-1.782-2.778a3.538 3.538 0 0 1 .02-1.746L4.375 5.027c-.042.048-.087.09-.11.114Z"/>
    <path d="M14.579 3.101a.77.77 0 0 1 .903-.605l5.348 1.057a.77.77 0 0 1 .58 1.003l-1.759 5.16a.77.77 0 1 1-1.456-.496l1.098-3.222-5.333 3.079a.77.77 0 1 1-.77-1.333l5.333-3.079-3.339-.66a.77.77 0 0 1-.605-.904Z"/>
  </g>
  <defs>
    <clipPath id="a">
      <path fill="#fff" d="M0 0h24v24H0z"/>
    </clipPath>
  </defs>
</svg>
